X: 4535
T: Boróimhe, The
R: reel
M: 4/4
K: Gmajor
gf|:edBG ABde|dBAB GBAG|EAGE DGBe|dBde gbag|
egdB GABe|dBAB GBAG|EAGE DGBe|dBAB G2gf:|
|:ed (3efg a2bg|egdB dgbg|agbg agbg|egdB A2gf|
egdB GABe|dBAB GBAG|EAGE DGBe|dBAB [1 G2gf:|2 G4||

